svgs/alromansiah_restaurants.svg

<svg width="192" height="192" viewBox="0 0 192 192" fill="none" xmlns="http://www.w3.org/2000/svg">
<path d="M30.3096 96.168H149.81M30.3096 96.168H22M30.3096 96.168V106.43C37.2189 137.36 83.4537 119.914 90.0599 145.898C94.0128 119.914 138.557 136.618 149.81 106.43V96.168M30.3096 96.168C30.3096 60.893 68.1937 53.9379 84.7325 71.6579C92.4803 57.8133 110.504 49.3057 129.479 60.8493C135.055 54.7671 139.11 50.2055 150.767 50.2055L154.337 52.7983M149.81 96.168C150.51 87.805 150.067 79.1474 144.137 76.0137C148.699 73.4795 155.843 69.411 156.808 57.7534L154.337 52.7983M149.81 96.168H157.724M154.337 52.7983L161.057 46.9302M163.541 36L161.057 46.9302M161.057 46.9302L170 45.4397" stroke="black" stroke-width="12" stroke-linecap="round" stroke-linejoin="round"/>
</svg>

<svg xmlns="http://www.w3.org/2000/svg" width="192" height="192" fill="none"><path stroke="#000" stroke-linecap="round" stroke-linejoin="round" stroke-width="12" d="M30.31 96.168h119.5m-119.5 0H22m8.31 0v10.262c6.909 30.93 53.144 13.484 59.75 39.468 3.953-25.984 48.497-9.28 59.75-39.468V96.168m-119.5 0c0-35.275 37.884-42.23 54.423-24.51 7.747-13.845 25.771-22.352 44.746-10.809 5.576-6.082 9.631-10.643 21.288-10.643l3.57 2.592m-4.527 43.37c.7-8.363.257-17.02-5.673-20.154 4.562-2.534 11.706-6.603 12.671-18.26l-2.471-4.956m-4.527 43.37h7.914m-3.387-43.37 6.72-5.868M163.541 36l-2.484 10.93m0 0L170 45.44"/></svg>
